packages/foundations/assets/icons/functional/images/maps/navigation_to_left_16.svg

<svg width="16" height="16" viewBox="0 0 16 16" fill="none" xmlns="http://www.w3.org/2000/svg">
<g clip-path="url(#clip0_2213_5392)">
<path fill-rule="evenodd" clip-rule="evenodd" d="M7.92256 1.53906C7.70687 1.53906 7.49118 1.61986 7.35644 1.78146L4.17919 4.95552C4.01739 5.09024 3.93652 5.30576 3.93652 5.52128C3.93652 5.70985 4.01739 5.92537 4.17919 6.08705L7.43771 9.34238C7.57245 9.47702 7.78815 9.58478 8.00384 9.58478C8.4622 9.58478 8.81271 9.20765 8.81271 8.77661C8.81271 8.56109 8.73185 8.34557 8.57004 8.18389L6.71758 6.33317L9.62541 6.33398C10.0743 6.33398 10.4381 6.69784 10.4381 7.14668V13.6483C10.4381 14.0971 10.802 14.461 11.2508 14.461C11.6997 14.461 12.0635 14.0971 12.0635 13.6483V7.14668C12.0635 5.80016 10.9719 4.70859 9.62541 4.70859L6.7192 4.70777L8.48877 2.93995C8.64916 2.76721 8.73005 2.56963 8.73144 2.34723C8.73144 1.91618 8.38093 1.53906 7.92256 1.53906Z" fill="#1A1C1F"/>
</g>
<defs>
<clipPath id="clip0_2213_5392">
<rect width="16" height="16" fill="white"/>
</clipPath>
</defs>
</svg>

<svg xmlns="http://www.w3.org/2000/svg" width="16" height="16" fill="none"><g clip-path="url(#a)"><path fill="#1A1C1F" fill-rule="evenodd" d="M7.923 1.54a.73.73 0 0 0-.567.241L4.18 4.956a.73.73 0 0 0-.242.565c0 .189.08.404.242.566l3.259 3.255c.134.135.35.243.566.243a.81.81 0 0 0 .809-.808.84.84 0 0 0-.243-.593l-1.852-1.85h2.907c.45 0 .813.364.813.813v6.501a.813.813 0 0 0 1.625 0V7.147a2.44 2.44 0 0 0-2.438-2.438L6.72 4.708 8.49 2.94a.86.86 0 0 0 .242-.593.81.81 0 0 0-.808-.808" clip-rule="evenodd"/></g><defs><clipPath id="a"><path fill="#fff" d="M0 0h16v16H0z"/></clipPath></defs></svg>
